X: 25040
T: Maids In The Meadow, The
R: reel
M: 4/4
K: Dmixolydian
d3B cAGB|Add^c d3g|effe dcAG|(3ABc AG EDD2|
dAed cAGB|Add^c d3g|effe dcAG|(3EFG cG EDDg||
fdd^c d3g|eaag efge|fage dcAd|egag eddg|
fdd^c d3g|eaag a2ag|effe dcAd|(3efg ag eage||

